build/images/none.svg

<svg width="16" height="16" viewBox="0 0 16 16" fill="none" xmlns="http://www.w3.org/2000/svg">
<path d="M16 8C16 10.1369 15.1678 12.1458 13.6569 13.6569C12.1458 15.1678 10.1369 16 8 16C6.50409 16 5.07116 15.5917 3.82756 14.8287L4.74475 13.9115C5.71069 14.4455 6.82037 14.75 8 14.75C11.722 14.75 14.75 11.722 14.75 8C14.75 6.82037 14.4455 5.71069 13.9115 4.74478L14.8287 3.82759C15.5917 5.07116 16 6.50409 16 8ZM0.910688 15.9732L0.0268125 15.0893L1.91831 13.1978C0.677094 11.7502 0 9.92716 0 8C0 5.86312 0.832156 3.85416 2.34313 2.34313C3.85416 0.832156 5.86312 0 8 0C9.92716 0 11.7502 0.677094 13.1978 1.91831L15.0893 0.0268125L15.9732 0.910688L0.910688 15.9732ZM2.80791 12.3082L12.3082 2.80791C11.1385 1.83559 9.63641 1.25 8 1.25C4.27803 1.25 1.25 4.27803 1.25 8C1.25 9.63641 1.83556 11.1385 2.80791 12.3082Z" fill="#777777"/>
</svg>

<svg width="16" height="16" fill="none" xmlns="http://www.w3.org/2000/svg"><path d="M16 8a7.948 7.948 0 01-2.343 5.657A7.948 7.948 0 018 16a7.948 7.948 0 01-4.172-1.171l.917-.918A6.708 6.708 0 008 14.75 6.758 6.758 0 0014.75 8c0-1.18-.305-2.29-.838-3.255l.917-.917A7.948 7.948 0 0116 8zM.91 15.973l-.883-.884 1.891-1.891A7.94 7.94 0 010 8c0-2.137.832-4.146 2.343-5.657A7.948 7.948 0 018 0a7.94 7.94 0 015.198 1.918L15.089.027l.884.884L.911 15.973zm1.898-3.665l9.5-9.5A6.719 6.719 0 008 1.25 6.758 6.758 0 001.25 8a6.72 6.72 0 001.558 4.308z" fill="#777"/></svg>
